source/svgs/turbine_land.svg

<svg xmlns="http://www.w3.org/2000/svg" viewBox="0 0 8.61 14.27" preserveAspectRatio="xMinYMax"><g fill="#28A197"><path d="M5.03 4.07C4.92 2.85 4.61 0 4.31 0s-.61 2.85-.72 4.07c.19-.15.46-.27.72-.27.26 0 .53.08.72.27z"/><circle cx="4.31" cy="4.95" r=".76"/><path d="M5.45 4.79v.15c0 .5-.29.91-.72 1.06 1.1.5 3.73 1.68 3.88 1.41.15-.26-2.21-1.93-3.16-2.62zM3.17 4.95V4.8C2.18 5.49-.14 7.2.01 7.46s2.78-.91 3.88-1.41l-.34 8.22h1.52l-.34-8.26c-.13.05-.27.08-.42.08-.65 0-1.14-.5-1.14-1.14zM4.73 6.01z"/></g></svg>

<?xml version="1.0" encoding="utf-8"?>
<!-- Generator: Adobe Illustrator 18.1.0, SVG Export Plug-In . SVG Version: 6.00 Build 0)  -->
<svg version="1.1" id="Layer_1" xmlns="http://www.w3.org/2000/svg" xmlns:xlink="http://www.w3.org/1999/xlink" x="0px" y="0px"
	 viewBox="0 0 8.61 14.27" enable-background="new 0 0 8.61 14.27" xml:space="preserve" preserveAspectRatio="xMinYMax">
<g>
	<path fill="#28A197" d="M5.03,4.07C4.92,2.85,4.61,0,4.31,0S3.7,2.85,3.59,4.07c0.19-0.15,0.46-0.27,0.72-0.27
		C4.57,3.8,4.84,3.88,5.03,4.07z"/>
	<circle fill="#28A197" cx="4.31" cy="4.95" r="0.76"/>
	<path fill="#28A197" d="M5.45,4.79c0,0.04,0,0.11,0,0.15c0,0.5-0.29,0.91-0.72,1.06c1.1,0.5,3.73,1.68,3.88,1.41
		C8.76,7.15,6.4,5.48,5.45,4.79z"/>
	<path fill="#28A197" d="M3.17,4.95c0-0.04,0-0.11,0-0.15c-0.99,0.69-3.31,2.4-3.16,2.66s2.78-0.91,3.88-1.41l-0.34,8.22h1.52
		L4.73,6.01C4.6,6.06,4.46,6.09,4.31,6.09C3.66,6.09,3.17,5.59,3.17,4.95z"/>
	<path fill="#28A197" d="M4.73,6.01L4.73,6.01L4.73,6.01L4.73,6.01z"/>
</g>
</svg>
